assets/icons/24px/stroke/ribbon-add-24px.svg

<svg width="24" height="24" viewBox="0 0 24 24" fill="none" xmlns="http://www.w3.org/2000/svg">
<path fill-rule="evenodd" clip-rule="evenodd" d="M9.93417 1.99988C9.95604 1.99988 9.97799 1.99988 10 1.99988L10.5 1.99988C11.0523 1.99988 11.5 2.4476 11.5 2.99988C11.5 3.55217 11.0523 3.99988 10.5 3.99988H10C9.02893 3.99988 8.40122 4.00201 7.93871 4.06419C7.50497 4.1225 7.36902 4.21665 7.2929 4.29278C7.21677 4.3689 7.12263 4.50485 7.06431 4.93859C7.00213 5.40109 7 6.0288 7 6.99988L7 15.2217C7 16.9847 7.0023 18.199 7.11452 19.0251C7.17011 19.4343 7.24292 19.6601 7.30389 19.777C7.31539 19.7991 7.32498 19.8143 7.33201 19.8243C7.34384 19.8211 7.36095 19.8156 7.38391 19.806C7.50564 19.7553 7.70618 19.6286 8.01105 19.35C8.62647 18.7876 9.40618 17.8567 10.5357 16.503L11.2322 15.6682C11.4222 15.4405 11.7034 15.3089 12 15.3089C12.2966 15.3089 12.5778 15.4405 12.7678 15.6682L13.4644 16.503C14.5938 17.8567 15.3735 18.7876 15.989 19.35C16.2938 19.6286 16.4944 19.7553 16.6161 19.806C16.6391 19.8156 16.6562 19.8211 16.668 19.8243C16.675 19.8143 16.6846 19.7991 16.6961 19.777C16.7571 19.6601 16.8299 19.4343 16.8855 19.0251C16.9977 18.199 17 16.9847 17 15.2217V11.9999C17 11.4476 17.4477 10.9999 18 10.9999C18.5523 10.9999 19 11.4476 19 11.9999L19 15.3053C19 16.9647 19.0001 18.3169 18.8673 19.2943C18.7418 20.2184 18.4372 21.3179 17.3518 21.7112C16.2664 22.1045 15.3282 21.4555 14.6398 20.8264C13.9156 20.1646 13.055 19.1342 12 17.8698C10.945 19.1342 10.0844 20.1646 9.36025 20.8264C8.67185 21.4555 7.73361 22.1045 6.64822 21.7112C5.56283 21.3179 5.25826 20.2184 5.13272 19.2943C4.99994 18.3169 4.99997 16.9647 5 15.3053L5 6.99988C5 6.97786 5 6.95592 5 6.93405C4.99995 6.04757 4.99991 5.28375 5.08215 4.67209C5.17028 4.01658 5.36902 3.38822 5.87868 2.87856C6.38835 2.3689 7.0167 2.17016 7.67221 2.08202C8.28387 1.99979 9.04769 1.99983 9.93417 1.99988Z" fill="white"/>
<path fill-rule="evenodd" clip-rule="evenodd" d="M15.5 2C16.0523 2 16.5 2.44772 16.5 3V5H18.5C19.0523 5 19.5 5.44772 19.5 6C19.5 6.55228 19.0523 7 18.5 7H16.5V9C16.5 9.55228 16.0523 10 15.5 10C14.9477 10 14.5 9.55228 14.5 9V7H12.5C11.9477 7 11.5 6.55228 11.5 6C11.5 5.44772 11.9477 5 12.5 5H14.5V3C14.5 2.44772 14.9477 2 15.5 2Z" fill="white"/>
</svg>

<svg width="24" height="24" fill="none" xmlns="http://www.w3.org/2000/svg"><path fill-rule="evenodd" clip-rule="evenodd" d="M9.934 2H10.5a1 1 0 1 1 0 2H10c-.971 0-1.599.002-2.061.064-.434.058-.57.153-.646.229-.076.076-.17.212-.229.646C7.002 5.4 7 6.029 7 6.999v8.223c0 1.763.002 2.977.115 3.803.055.41.128.635.189.752a.419.419 0 0 0 .028.047.42.42 0 0 0 .052-.018c.122-.05.322-.177.627-.456.615-.562 1.395-1.493 2.525-2.847l.696-.835a1 1 0 0 1 1.536 0l.696.835c1.13 1.354 1.91 2.285 2.525 2.847.305.279.505.405.627.456.023.01.04.015.052.018a.424.424 0 0 0 .028-.047c.061-.117.134-.343.19-.752.112-.826.114-2.04.114-3.803V12a1 1 0 1 1 2 0v3.305c0 1.66 0 3.012-.133 3.99-.125.923-.43 2.023-1.515 2.416-1.086.394-2.024-.255-2.712-.885-.724-.661-1.585-1.692-2.64-2.956-1.055 1.264-1.916 2.295-2.64 2.956-.688.63-1.626 1.279-2.712.885-1.085-.393-1.39-1.493-1.515-2.417C5 18.317 5 16.964 5 15.305V7v-.066c0-.886 0-1.65.082-2.262.088-.655.287-1.284.797-1.793.51-.51 1.138-.709 1.793-.797C8.284 2 9.048 2 9.934 2z" fill="#fff"/><path fill-rule="evenodd" clip-rule="evenodd" d="M15.5 2a1 1 0 0 1 1 1v2h2a1 1 0 1 1 0 2h-2v2a1 1 0 1 1-2 0V7h-2a1 1 0 1 1 0-2h2V3a1 1 0 0 1 1-1z" fill="#fff"/></svg>
